symbols/web/view_sidebar/materialsymbolsoutlined/view_sidebar_wght600grad200fill1_48px.svg

<svg xmlns="http://www.w3.org/2000/svg" height="48" width="48"><path d="M35.85 16.2V7h9.1v9.2Zm0 12.4v-9.25h9.1v9.25ZM3.05 40.95V7h29.6v33.95Zm32.8 0V31.8h9.1v9.15Z"/></svg>

<svg xmlns="http://www.w3.org/2000/svg" height="48" width="48"><path d="M35.85 16.2V7H44.95V16.2ZM35.85 28.6V19.35H44.95V28.6ZM3.05 40.95V7H32.65V40.95ZM35.85 40.95V31.8H44.95V40.95Z"/></svg>
